static/fa/svgs/solid/person-military-to-person.svg

<svg xmlns="http://www.w3.org/2000/svg" viewBox="0 0 512 512"><!--! Font Awesome Free 6.1.1 by @fontawesome - https://fontawesome.com License - https://fontawesome.com/license/free (Icons: CC BY 4.0, Fonts: SIL OFL 1.1, Code: MIT License) Copyright 2022 Fonticons, Inc.--><path d="M182.2.1C191.7-.953 200 6.466 200 16v14.13c0 8.78-7.1 15.92-15.9 16H72.74C63.48 46.04 56 38.52 56 29.24c0-8.6 6.47-15.83 15.02-16.78L182.2.1zM192 96c0 35.3-28.7 64-64 64-35.35 0-64-28.7-64-64 0-6.2.88-12.2 2.53-17.87H189.5C191.1 83.8 192 89.8 192 96zM32 256c0-18.8 8.09-35.7 20.97-47.4l144.23 111c-1.7.3-3.4.4-5.2.4H64c-17.67 0-32-14.3-32-32v-32zm190.2 42.5L85.05 192.9c3.56-.6 7.22-1.8 10.95-1.8h64c35.3 0 64 29.6 64 64v32c0 4.6-.6 8.1-1.8 11.4zM320 96c0-35.35 28.7-64.9 64-64.9s64 29.55 64 64.9c0 35.3-28.7 64-64 64s-64-28.7-64-64zm96 96c35.3 0 64 28.7 64 64v32c0 17.7-14.3 32-32 32H320c-17.7 0-32-14.3-32-32v-32c0-35.3 28.7-64 64-64h64zM151.8 506.1c-10 8.7-25.1 7.7-33.9-2.3-8.7-10-7.7-25.1 2.3-33.9l15.9-13.9-113-.9c-12.36 0-23.1-9.9-23.1-24 0-12.4 10.75-24 24-24l112.1.9-15.9-13.9c-10-8.8-11-23.9-2.3-33.9 8.8-10 23.9-11 33.9-2.3l64 56c5.2 4.6 8.2 11.2 8.2 17.2 0 7.8-3 14.4-8.2 19l-64 56zm144.4-92.2 64-56c10-8.7 25.1-7.7 33.9 2.3 8.7 10 7.7 25.1-2.3 33.9l-15.9 13H488c13.3 0 24 11.6 24 24 0 14.1-10.7 24-24 24H375.9l15.9 14.8c10 8.8 11 23.9 2.3 33.9-8.8 10-23.9 11-33.9 2.3l-64-56c-6.1-4.6-8.2-11.2-8.2-19 0-6 2.1-12.6 8.2-17.2z"/></svg>

<svg xmlns="http://www.w3.org/2000/svg" viewBox="0 0 512 512"><!--! Font Awesome Free 6.1.1 by @fontawesome - https://fontawesome.com License - https://fontawesome.com/license/free (Icons: CC BY 4.0, Fonts: SIL OFL 1.1, Code: MIT License) Copyright 2022 Fonticons, Inc. --><path d="M182.2 .0998C191.7-.9534 200 6.466 200 16V30.13C200 38.91 192.9 46.05 184.1 46.13H72.74C63.48 46.04 56 38.52 56 29.24C56 20.64 62.47 13.41 71.02 12.46L182.2 .0998zM192 96C192 131.3 163.3 160 128 160C92.65 160 64 131.3 64 96C64 89.8 64.88 83.8 66.53 78.13H189.5C191.1 83.8 192 89.8 192 96V96zM32 256C32 237.2 40.09 220.3 52.97 208.6L197.2 319.6C195.5 319.9 193.8 320 192 320H64C46.33 320 32 305.7 32 288L32 256zM222.2 298.5L85.05 192.9C88.61 192.3 92.27 191.1 96 191.1H160C195.3 191.1 224 220.7 224 255.1V287.1C224 291.7 223.4 295.2 222.2 298.5V298.5zM320 96C320 60.65 348.7 31.1 384 31.1C419.3 31.1 448 60.65 448 96C448 131.3 419.3 160 384 160C348.7 160 320 131.3 320 96zM416 192C451.3 192 480 220.7 480 256V288C480 305.7 465.7 320 448 320H320C302.3 320 288 305.7 288 288V256C288 220.7 316.7 192 352 192H416zM151.8 506.1C141.8 514.8 126.7 513.8 117.9 503.8C109.2 493.8 110.2 478.7 120.2 469.9L136.1 456L23.1 455.1C10.74 455.1-.0003 445.2 0 431.1C.0003 418.7 10.75 407.1 24 407.1L136.1 408L120.2 394.1C110.2 385.3 109.2 370.2 117.9 360.2C126.7 350.2 141.8 349.2 151.8 357.9L215.8 413.9C221 418.5 224 425.1 224 431.1C224 438.9 221 445.5 215.8 450.1L151.8 506.1zM296.2 413.9L360.2 357.9C370.2 349.2 385.3 350.2 394.1 360.2C402.8 370.2 401.8 385.3 391.8 394.1L375.9 407.1L488 407.1C501.3 407.1 512 418.7 512 431.1C512 445.2 501.3 455.1 488 455.1L375.9 455.1L391.8 469.9C401.8 478.7 402.8 493.8 394.1 503.8C385.3 513.8 370.2 514.8 360.2 506.1L296.2 450.1C290.1 445.5 288 438.9 288 431.1C288 425.1 290.1 418.5 296.2 413.9H296.2z"/></svg>
